img/logo.svg

<svg id="layer_1" data-name="layer 1" xmlns="http://www.w3.org/2000/svg" viewBox="0 0 275.04 244.92"><defs><style>.cls-1{fill:#3fa9f5}</style></defs><path class="cls-1" d="M660.69 425.79H536l-62.35-108 62.35-108h124.69l62.36 108zm-117.78-12h110.85l55.43-96-55.43-96H542.91l-55.42 96z" transform="translate(-461.47 -195.05)"/><circle class="cls-1" cx="21.51" cy="122.89" r="17.5"/><path class="cls-1" d="M483 339.44a21.5 21.5 0 1110.71-2.88 21.52 21.52 0 01-10.71 2.88zm-.06-35a13.48 13.48 0 103.52.46 13.72 13.72 0 00-3.46-.46z" transform="translate(-461.47 -195.05)"/><circle class="cls-1" cx="195.54" cy="21.5" r="17.5"/><path class="cls-1" d="M657.05 238a21.5 21.5 0 1110.71-2.88 21.52 21.52 0 01-10.71 2.88zm-.05-35a13.43 13.43 0 00-6.73 1.81 13.5 13.5 0 1010.24-1.35A13.59 13.59 0 00657 203z" transform="translate(-461.47 -195.05)"/><circle class="cls-1" cx="194.54" cy="223.41" r="17.5"/><path class="cls-1" d="M656 440a21.53 21.53 0 1110.72-2.89A21.43 21.43 0 01656 440zm0-35a13.34 13.34 0 00-6.73 1.82 13.5 13.5 0 1010.24-1.35A13.6 13.6 0 00656 405z" transform="translate(-461.47 -195.05)"/><path class="cls-1" transform="rotate(-59.81 169.012 672.242)" d="M510 362.59h118.7v12H510z"/><path class="cls-1" d="M137.73 116.24h115.13v12H137.73z"/><path class="cls-1" transform="rotate(-30.05 -23.24 1030.256)" d="M564.77 211.37h12v113.55h-12z"/><circle class="cls-1" cx="77.71" cy="223.41" r="17.5"/><path class="cls-1" d="M539.22 440a21.51 21.51 0 1110.72-2.89 21.45 21.45 0 01-10.72 2.89zm-.06-35a13.33 13.33 0 00-6.72 1.82 13.5 13.5 0 1010.24-1.35 13.62 13.62 0 00-3.52-.47z" transform="translate(-461.47 -195.05)"/><circle class="cls-1" cx="253.55" cy="121.89" r="17.5"/><path class="cls-1" d="M715.06 338.44a21.5 21.5 0 1110.71-2.88 21.52 21.52 0 01-10.71 2.88zm-.06-35a13.51 13.51 0 103.51.46 13.59 13.59 0 00-3.51-.46z" transform="translate(-461.47 -195.05)"/><circle class="cls-1" cx="77.52" cy="21.5" r="17.5"/><path class="cls-1" d="M539 238.05a21.52 21.52 0 1110.71-2.89 21.44 21.44 0 01-10.71 2.89zm0-35.05a13.43 13.43 0 00-6.73 1.81 13.5 13.5 0 1010.24-1.35A13.59 13.59 0 00539 203z" transform="translate(-461.47 -195.05)"/><circle class="cls-1" cx="137.55" cy="121.89" r="17.5"/><path class="cls-1" d="M599.06 338.45a21.54 21.54 0 1110.71-2.89 21.44 21.44 0 01-10.71 2.89zm-.06-35a13.5 13.5 0 1011.71 6.75 13.47 13.47 0 00-11.71-6.76z" transform="translate(-461.47 -195.05)"/></svg>

<svg id="layer_1" data-name="layer 1" xmlns="http://www.w3.org/2000/svg" viewBox="0 0 275.04 244.92"><defs><style>.cls-1{fill:#3fa9f5;}</style></defs><title>logo</title><path class="cls-1" d="M660.69,425.79H536l-62.35-108,62.35-108H660.69l62.36,108Zm-117.78-12H653.76l55.43-96-55.43-96H542.91l-55.42,96Z" transform="translate(-461.47 -195.05)"/><circle class="cls-1" cx="21.51" cy="122.89" r="17.5"/><path class="cls-1" d="M483,339.44a21.5,21.5,0,1,1,10.71-2.88A21.52,21.52,0,0,1,483,339.44Zm-.06-35a13.48,13.48,0,1,0,3.52.46A13.72,13.72,0,0,0,483,304.44Z" transform="translate(-461.47 -195.05)"/><circle class="cls-1" cx="195.54" cy="21.5" r="17.5"/><path class="cls-1" d="M657.05,238a21.5,21.5,0,1,1,10.71-2.88A21.52,21.52,0,0,1,657.05,238ZM657,203a13.43,13.43,0,0,0-6.73,1.81h0a13.5,13.5,0,1,0,10.24-1.35A13.59,13.59,0,0,0,657,203Z" transform="translate(-461.47 -195.05)"/><circle class="cls-1" cx="194.54" cy="223.41" r="17.5"/><path class="cls-1" d="M656,440a21.53,21.53,0,1,1,10.72-2.89A21.43,21.43,0,0,1,656,440Zm0-35a13.34,13.34,0,0,0-6.73,1.82h0a13.5,13.5,0,1,0,10.24-1.35A13.6,13.6,0,0,0,656,405Z" transform="translate(-461.47 -195.05)"/><rect class="cls-1" x="510" y="362.59" width="118.7" height="12" transform="translate(-497.04 480.28) rotate(-59.81)"/><rect class="cls-1" x="137.73" y="116.24" width="115.13" height="12"/><rect class="cls-1" x="564.77" y="211.37" width="12" height="113.55" transform="translate(-519.03 126.84) rotate(-30.05)"/><circle class="cls-1" cx="77.71" cy="223.41" r="17.5"/><path class="cls-1" d="M539.22,440a21.51,21.51,0,1,1,10.72-2.89A21.45,21.45,0,0,1,539.22,440Zm-.06-35a13.33,13.33,0,0,0-6.72,1.82h0a13.5,13.5,0,1,0,10.24-1.35A13.62,13.62,0,0,0,539.16,405Z" transform="translate(-461.47 -195.05)"/><circle class="cls-1" cx="253.55" cy="121.89" r="17.5"/><path class="cls-1" d="M715.06,338.44a21.5,21.5,0,1,1,10.71-2.88A21.52,21.52,0,0,1,715.06,338.44Zm-.06-35a13.51,13.51,0,1,0,3.51.46A13.59,13.59,0,0,0,715,303.44Z" transform="translate(-461.47 -195.05)"/><circle class="cls-1" cx="77.52" cy="21.5" r="17.5"/><path class="cls-1" d="M539,238.05a21.52,21.52,0,1,1,10.71-2.89A21.44,21.44,0,0,1,539,238.05ZM539,203a13.43,13.43,0,0,0-6.73,1.81h0a13.5,13.5,0,1,0,10.24-1.35A13.59,13.59,0,0,0,539,203Z" transform="translate(-461.47 -195.05)"/><circle class="cls-1" cx="137.55" cy="121.89" r="17.5"/><path class="cls-1" d="M599.06,338.45a21.54,21.54,0,1,1,10.71-2.89A21.44,21.44,0,0,1,599.06,338.45Zm-.06-35a13.5,13.5,0,1,0,11.71,6.75A13.47,13.47,0,0,0,599,303.44Z" transform="translate(-461.47 -195.05)"/></svg>
